X:1
T:Mundus autem gaudebit
T:Ignatio Donati
T:Source : Primo libro di Motetti a voce sola---Venetia---A.Vincenti---1634. Editor : André Vierendeels (08/12/16).
T:Notes : Original clefs : C1, F4 Editorial accidentals above the staff Original note values have been halved in 3-beat measures Figures in BC are notated in original print m 35 in S : "D" notated as "E" in original print "Canto o Tenore 
T:Mundus autem gaudebit
T:©
T:©
T:©
T:©
T:©
T:©
C:Ignatio Donati
Z:©
%%score 1 2
L:1/8
Q:1/4=120
M:6/4
K:F
V:1 treble nm="Soprano" snm="S"
V:2 bass nm="MusicXML Part"
V:1
 G8 A4 | B2 A2 c2 B2 A4 | B8 B4 | d8 c4 | _e2 d2 c2 B2 A4 | B4 B4 G4 | A2 B2 c2 d2 =B4 | %7
w: Mun- dus|au- * tem _ gau-|de- bit,|mun- dus|au- * te _ gau-|de- bit, Al-|le- * * * lu-|
 c2 B2 A2 G2 F4 | A4 B2 A2 G4 | A2 G2 A2 B2 c4 | d4 _e2 d2 c4 | d2 c2 B2 A2 G4 | B4 c2 B2 A4 | %13
w: ia, _ _ _ _|al- le- * lu-|ia, _ _ _ _|al- le- * lu-|ia, _ _ _ _|al- le- * lu-|
 G8 z4 |[M:4/4] z4 E4 | F8 | G8 | z4 G4 | A8 | A4 d4- | d4 c3 d | =B6 A2 | A8 | z4 A4 | B8 | c8 | %26
w: ia,|vos|ve-|ro,|vos|ve-|ro con-|* tri- sta-|bi- mi-|ni,|vos|ve-|ro,|
 z4 c4 | d8 | d4 A4- | A4- A2 F>E | E6 D2 | D8 |[M:6/4] F4 G4 A4 | B2 A2 B2 c2 A4 | B4 c4 d4 | %35
w: vos|ve-|ro con|_ _ tri- sta-|bi- mi-|ni,|al- le- lu-|ia, _ _ _ _|al- le- lu-|
 _e2 d2 d2 f2 d4 | c4 c4 =B4 | c8 z4 | A4 B4 c4 | d2 c2 d2 e2 c4 | F4 G4 A4 | B2 A2 B2 c2 A4 | %42
w: ia, _ _ _ _|al- le- lu-|ia,|al- le- lu-|ia, _ _ _ _|al- le- lu-|ia, _ _ _ _|
 G4 G4 ^F4 |[M:4/4] G8 | z8 | z4 B4- | B2 A2 A2 Bc | G8 | F8 | z4 _e4- | e2 d2 d2 _ef | c8 | %52
w: al- le lu-|ia,||sed|_ tri- sti- ti- a|ve-|stra,|sed|_ tri- sti- ti- a|ve-|
 B4 FE FG | AB cA BA BG | A2 BA GF G2 | F4 AG AB | cd _ec dc dB |"^b" c2 ed cB c2 | B4 GF GA | %59
w: stra ver- * te- *|tur _ in _ gau- * di- *|um, al- * le- * lu-|ia, ver- * te- *|tur _ in _ gau- * di- *|um, al- * le- * lu-|ia ver- * te- *|
 Bc dB cB cA | B2 cB AG A2 | G8 | z4 c4- | c4 B/A/B/G/ A/F/G/A/ | %64
w: tur _ in _ gau- * di- *|um, al- * le- * lu-|ia,|al-|* le- * * * * * * *|
 B/A/B/c/ d/A/B/c/ d/F/G/A/ B/A/B/G/ | d/c/B/A/ c/B/A/G/ A4 | G8 |] %67
w: |* * * * * * * * lu-|ia.|
V:2
"^BC" G,8 F,4 | _E,4 C,4 F,4 | B,,8 B,,4 | B,8 A,4 | G,4 _E,4 F,4 | B,,8 C,4 | %6
"^-natural" F,,8 G,,4 | C,8 D,4 | F,4 B,,4 C,4 | F,,8 A,,4 | B,,4 _E,4 F,4 | B,,8 C,4 | %12
"^#" G,,4 C,4 D,4 |"^-natural" G,,8 z4 |[M:4/4] C,8 |"^6" A,,4 B,,4 | =B,,4 B,,4 | C,8 | ^C,8 | %19
 D,8 |"^3 4" E,8- |"^4 3" E,8 | A,,8 | F,8 |"^6" D,4 _E,4 |"^(-natural)" E,8 | F,8 | ^F,8 | %28
"^-natural" G,4 ^C,4 |"^-natural" D,8 |"^#" G,,4 A,,4 | D,8 |[M:6/4] D,4 C,4 A,,4 |"^#" G,,8 D,4 | %34
 G,4 F,4 D,4 |"^b""^-natural" C,8 G,4 |"^6""^-natural" E,4 F,4 G,4 | C,8 z4 | F,4 _E,4 C,4 | %39
 B,,8 F,4 | D,4 C,4 A,,4 |"^#" G,,8 D,4 |"^#" B,,4 C,4 D,4 |[M:4/4]"^-natural" G,,8 | C,4 F,,4 | %45
 B,,8 |"^7 6" C,8- |"^4 3" C,8 | F,,4 B,,4 | _E,8 | F,8- | F,8 | B,,4 B,,4 | F,,4 G,,4 | %54
 D,2 B,,2 C,4 | F,,4 F,4 | C,4 G,4 | F,2 _E,2 F,4 | B,,4 _E,4 | B,,4 F,4 |"^b""^#" G,2 C,2 D,4 | %61
"^-natural" G,,4 G,,4 | C,8 |"^#""^7 6" D,8- |"^#" D,8- |"^#" D,8 | G,,8 |] %67

